X: 147
T: The Poor Blind Boy
N:"Slow"
B:O'Neill's 147
Z:Transcribed by henrik.norbeck@mailbox.swipnet.se
M:C
L:1/8
K:Bb
d|d3 B e3 d|(c=Bc>d) _B2 z A|(GBeg) f3 d|d4 c2 z2|
d2 d>c B3 A|G3 F (=EGcB)|(Af=ed cBAG)|(G4 F2) z||
F|(F3 G ABcd)|(ec)(fe) (dcBA)|(GBeg) f3 d|(d4 c2) z c|
d3 d e3 e|f3 f Hg3 f|fedc B3 A|c4 B2 z||


